public/client1.svg

<svg width="106" height="60" viewBox="0 0 106 60" fill="none" xmlns="http://www.w3.org/2000/svg">
<path d="M37 5L44.3076 11.918H64.6924V31.2158L72 38.1338V5H37Z" fill="#AFB1B8"/>
<path d="M31 11.6265V43.8137H65V31.0195L44.5231 11.6344L31 11.6265ZM58.5231 39.1055H36.3801V17.4579H37.9453V37.6397H58.5231V39.1055Z" fill="#AFB1B8"/>
<path d="M40.791 49.7837L41.6089 48.0991H42.2925L41.1011 50.3452V51.6538H40.481V50.3452L39.2871 48.0991H39.9731L40.791 49.7837ZM44.3018 50.8262H42.9248L42.6367 51.6538H41.9946L43.3374 48.0991H43.8916L45.2368 51.6538H44.5923L44.3018 50.8262ZM43.0981 50.3281H44.1284L43.6133 48.8535L43.0981 50.3281ZM46.7358 50.6943C46.7358 50.5299 46.7806 50.3794 46.8701 50.2427C46.9596 50.1043 47.1362 49.9408 47.3999 49.752C47.2616 49.5778 47.1647 49.4297 47.1094 49.3076C47.0557 49.1855 47.0288 49.0675 47.0288 48.9536C47.0288 48.6753 47.1134 48.4556 47.2827 48.2944C47.452 48.1317 47.6799 48.0503 47.9663 48.0503C48.2251 48.0503 48.4367 48.1268 48.6011 48.2798C48.7671 48.4312 48.8501 48.6191 48.8501 48.8438C48.8501 48.9919 48.8127 49.1286 48.7378 49.2539C48.6629 49.3776 48.54 49.5013 48.3691 49.625L48.1274 49.8008L48.8135 50.6113C48.9128 50.416 48.9624 50.1987 48.9624 49.9595H49.4775C49.4775 50.3973 49.375 50.7562 49.1699 51.0361L49.6924 51.6538H49.0039L48.8037 51.417C48.5498 51.6074 48.2471 51.7026 47.8955 51.7026C47.5439 51.7026 47.2624 51.6099 47.0508 51.4243C46.8408 51.2371 46.7358 50.9938 46.7358 50.6943ZM47.9126 51.229C48.1128 51.229 48.3 51.1623 48.4741 51.0288L47.6978 50.1133L47.6221 50.167C47.4268 50.3151 47.3291 50.4844 47.3291 50.6748C47.3291 50.8392 47.382 50.9727 47.4878 51.0752C47.5936 51.1777 47.7352 51.229 47.9126 51.229ZM47.5854 48.939C47.5854 49.0757 47.6693 49.2474 47.8369 49.4541L48.1079 49.2686L48.1836 49.2075C48.2845 49.118 48.335 49.0033 48.335 48.8633C48.335 48.7705 48.3 48.6916 48.23 48.6265C48.16 48.5597 48.0713 48.5264 47.9639 48.5264C47.8483 48.5264 47.7563 48.5654 47.688 48.6436C47.6196 48.7217 47.5854 48.8201 47.5854 48.939ZM54.043 50.4966C54.0072 50.8758 53.8672 51.172 53.623 51.3853C53.3789 51.5968 53.0542 51.7026 52.6489 51.7026C52.3657 51.7026 52.1159 51.6359 51.8994 51.5024C51.6846 51.3674 51.5186 51.1761 51.4014 50.9287C51.2842 50.6813 51.2231 50.394 51.2183 50.0669V49.7349C51.2183 49.3996 51.2777 49.1042 51.3965 48.8486C51.5153 48.5931 51.6854 48.3962 51.9067 48.2578C52.1297 48.1195 52.3869 48.0503 52.6782 48.0503C53.0705 48.0503 53.3862 48.1569 53.6255 48.3701C53.8647 48.5833 54.0039 48.8844 54.043 49.2734H53.4277C53.3984 49.0179 53.3236 48.834 53.2031 48.7217C53.0843 48.6077 52.9093 48.5508 52.6782 48.5508C52.4097 48.5508 52.203 48.6493 52.0581 48.8462C51.9149 49.0415 51.8416 49.3288 51.8384 49.708V50.0229C51.8384 50.4071 51.9067 50.7 52.0435 50.9019C52.1818 51.1037 52.3836 51.2046 52.6489 51.2046C52.8914 51.2046 53.0737 51.1501 53.1958 51.041C53.3179 50.932 53.3952 50.7505 53.4277 50.4966H54.043ZM57.4341 49.9692C57.4341 50.3175 57.3739 50.6235 57.2534 50.8872C57.133 51.1493 56.9604 51.3511 56.7358 51.4927C56.5129 51.6326 56.2557 51.7026 55.9644 51.7026C55.6763 51.7026 55.4191 51.6326 55.1929 51.4927C54.9683 51.3511 54.7941 51.1501 54.6704 50.8896C54.5483 50.6292 54.4865 50.3289 54.4849 49.9888V49.7886C54.4849 49.4419 54.5459 49.1359 54.668 48.8706C54.7917 48.6053 54.965 48.4027 55.188 48.2627C55.4126 48.1211 55.6698 48.0503 55.9595 48.0503C56.2492 48.0503 56.5055 48.1203 56.7285 48.2603C56.9531 48.3986 57.1265 48.5988 57.2485 48.8608C57.3706 49.1213 57.4325 49.4248 57.4341 49.7715V49.9692ZM56.8164 49.7837C56.8164 49.3898 56.7415 49.0879 56.5918 48.8779C56.4437 48.668 56.2329 48.563 55.9595 48.563C55.6925 48.563 55.4834 48.668 55.332 48.8779C55.1823 49.0863 55.1058 49.3817 55.1025 49.7642V49.9692C55.1025 50.3599 55.1782 50.6618 55.3296 50.875C55.4826 51.0882 55.6942 51.1948 55.9644 51.1948C56.2378 51.1948 56.4478 51.0907 56.5942 50.8823C56.7424 50.674 56.8164 50.3696 56.8164 49.9692V49.7837Z" fill="#AFB1B8"/>
</svg>

<svg xmlns="http://www.w3.org/2000/svg" width="106" height="60" fill="none"><path fill="#AFB1B8" d="m37 5 7.308 6.918h20.384v19.298L72 38.134V5H37Z"/><path fill="#AFB1B8" d="M31 11.627v32.187h34V31.02L44.523 11.634 31 11.626Zm27.523 27.478H36.38V17.459h1.565V37.64h20.578v1.465ZM40.791 49.784l.818-1.685h.683l-1.19 2.246v1.309h-.621v-1.309L39.287 48.1h.686l.818 1.685Zm3.51 1.042h-1.376l-.288.828h-.642l1.342-3.555h.555l1.345 3.555h-.645l-.29-.828Zm-1.203-.498h1.03l-.515-1.475-.515 1.475Zm3.638.366c0-.164.045-.315.134-.451.09-.139.266-.302.53-.491a2.265 2.265 0 0 1-.29-.444.877.877 0 0 1-.081-.354c0-.279.084-.498.254-.66.169-.162.397-.244.683-.244.26 0 .47.077.635.23.166.151.25.34.25.564a.785.785 0 0 1-.113.41 1.34 1.34 0 0 1-.369.371l-.242.176.686.81c.1-.195.15-.412.15-.651h.514c0 .437-.102.796-.307 1.076l.522.618h-.688l-.2-.237a1.47 1.47 0 0 1-.909.286c-.351 0-.633-.093-.844-.279a.932.932 0 0 1-.315-.73Zm1.177.535c.2 0 .387-.067.561-.2l-.776-.916-.076.054c-.195.148-.293.317-.293.508 0 .164.053.298.159.4a.585.585 0 0 0 .425.154Zm-.328-2.29c0 .137.084.308.252.515l.27-.185.077-.061a.44.44 0 0 0 .151-.345.311.311 0 0 0-.105-.236.37.37 0 0 0-.266-.1.348.348 0 0 0-.276.117.432.432 0 0 0-.103.295Zm6.458 1.558c-.036.379-.176.675-.42.888-.244.212-.569.318-.974.318-.283 0-.533-.067-.75-.2a1.332 1.332 0 0 1-.498-.574 2.065 2.065 0 0 1-.183-.862v-.332c0-.335.06-.63.178-.886.12-.256.29-.453.51-.591.224-.139.48-.208.772-.208.393 0 .708.107.948.32.239.213.378.514.417.903h-.615c-.03-.255-.104-.439-.225-.551-.119-.114-.294-.171-.525-.171-.268 0-.475.098-.62.295-.143.196-.216.483-.22.862v.315c0 .384.069.677.206.879.138.202.34.303.605.303.242 0 .425-.055.547-.164.122-.109.2-.29.232-.544h.615Zm3.391-.528c0 .349-.06.654-.18.918-.121.262-.294.464-.518.606-.223.14-.48.21-.772.21-.288 0-.545-.07-.771-.21a1.405 1.405 0 0 1-.523-.603 2.124 2.124 0 0 1-.185-.901v-.2c0-.347.06-.653.183-.918.124-.266.297-.468.52-.608.225-.142.482-.213.771-.213.29 0 .546.07.77.21.224.139.398.339.52.6.122.261.183.565.185.912v.197Zm-.618-.185c0-.394-.075-.696-.224-.906a.728.728 0 0 0-.633-.315.731.731 0 0 0-.627.315c-.15.208-.226.504-.23.886v.205c0 .39.076.693.228.906.153.213.364.32.634.32.274 0 .484-.104.63-.313.148-.208.222-.512.222-.913v-.185Z"/></svg>
